X:1
T:Death Come Easy
M:4/4
L:1/4
K:C
 z2 A3/2 E/2| G A3-| A2 A B| c3/2 A/2 B A| G/2- B3/2 A3/2 E/2| G A3-|\
 A2 A B| c A B c| d4-| d2 c c/2d/2| e2 f e| d2 e d| c c d c| B ^G E2-|\
 E2 A3/2 E/2| G A3-| A2 A B| c B A G| A4-| A2 z2|
